X: 1
T: PADDY O'CARROL'S -- JIG
C: J.Oswald.
B: Ryan's Mammoth Collection of Fiddle Tunes
R: jig
M: 6/8
L: 1/8
Z: Contributed 20010704234832 by John Chambers jmchambers:rcn.net
K: D
vA/G/ \
| FED FED | FGF FED | DFA dAF | EFE EAG \
| FED FED | FGF FED | DFA dAF | DED D2 :|
|: va/g/ \
| fdf ece | dcB AFA | fdf ece | eaa a2g \
| fdf ece | dcB AFA | DFA dAF | DED D2 :|
